images/6604311.svg

<?xml version="1.0" encoding="UTF-8"?>
<svg xmlns="http://www.w3.org/2000/svg" xmlns:xlink="http://www.w3.org/1999/xlink" width="300pt" height="300pt" viewBox="0 0 300 300" version="1.1">
<defs>
<g>
<symbol overflow="visible" id="glyph0-0">
<path style="stroke:none;" d="M 0.453125 1.59375 L 0.453125 -6.34375 L 4.953125 -6.34375 L 4.953125 1.59375 Z M 0.953125 1.09375 L 4.453125 1.09375 L 4.453125 -5.84375 L 0.953125 -5.84375 Z M 0.953125 1.09375 "/>
</symbol>
<symbol overflow="visible" id="glyph0-1">
<path style="stroke:none;" d="M 0.890625 -6.5625 L 2.078125 -6.5625 L 4.984375 -1.078125 L 4.984375 -6.5625 L 5.84375 -6.5625 L 5.84375 0 L 4.65625 0 L 1.75 -5.484375 L 1.75 0 L 0.890625 0 Z M 0.890625 -6.5625 "/>
</symbol>
<symbol overflow="visible" id="glyph0-2">
<path style="stroke:none;" d="M 3.546875 -5.953125 C 2.898438 -5.953125 2.382812 -5.710938 2 -5.234375 C 1.625 -4.753906 1.4375 -4.101562 1.4375 -3.28125 C 1.4375 -2.445312 1.625 -1.789062 2 -1.3125 C 2.382812 -0.832031 2.898438 -0.59375 3.546875 -0.59375 C 4.191406 -0.59375 4.703125 -0.832031 5.078125 -1.3125 C 5.453125 -1.789062 5.640625 -2.445312 5.640625 -3.28125 C 5.640625 -4.101562 5.453125 -4.753906 5.078125 -5.234375 C 4.703125 -5.710938 4.191406 -5.953125 3.546875 -5.953125 Z M 3.546875 -6.6875 C 4.460938 -6.6875 5.195312 -6.375 5.75 -5.75 C 6.300781 -5.132812 6.578125 -4.3125 6.578125 -3.28125 C 6.578125 -2.238281 6.300781 -1.410156 5.75 -0.796875 C 5.195312 -0.179688 4.460938 0.125 3.546875 0.125 C 2.617188 0.125 1.878906 -0.179688 1.328125 -0.796875 C 0.773438 -1.410156 0.5 -2.238281 0.5 -3.28125 C 0.5 -4.3125 0.773438 -5.132812 1.328125 -5.75 C 1.878906 -6.375 2.617188 -6.6875 3.546875 -6.6875 Z M 3.546875 -6.6875 "/>
</symbol>
</g>
</defs>
<g id="surface43069">
<rect x="0" y="0" width="300" height="300" style="fill:rgb(100%,100%,100%);fill-opacity:1;stroke:none;"/>
<path style="fill:none;stroke-width:1.2;stroke-linecap:butt;stroke-linejoin:miter;stroke:rgb(0%,0%,0%);stroke-opacity:1;stroke-miterlimit:10;" d="M 53.339844 90.785156 L 72.726562 88.972656 "/>
<path style="fill:none;stroke-width:1.2;stroke-linecap:butt;stroke-linejoin:miter;stroke:rgb(0%,0%,0%);stroke-opacity:1;stroke-miterlimit:10;" d="M 72.726562 88.972656 L 78.355469 96.914062 "/>
<path style="fill:none;stroke-width:1.2;stroke-linecap:butt;stroke-linejoin:miter;stroke:rgb(0%,0%,100%);stroke-opacity:1;stroke-miterlimit:10;" d="M 78.355469 96.914062 L 83.988281 104.855469 "/>
<path style="fill:none;stroke-width:1.2;stroke-linecap:butt;stroke-linejoin:miter;stroke:rgb(0%,0%,100%);stroke-opacity:1;stroke-miterlimit:10;" d="M 83.988281 104.855469 L 93.683594 103.945312 "/>
<path style="fill:none;stroke-width:1.2;stroke-linecap:butt;stroke-linejoin:miter;stroke:rgb(0%,0%,0%);stroke-opacity:1;stroke-miterlimit:10;" d="M 93.683594 103.945312 L 103.375 103.039062 "/>
<path style="fill:none;stroke-width:1;stroke-linecap:butt;stroke-linejoin:miter;stroke:rgb(0%,0%,0%);stroke-opacity:1;stroke-miterlimit:10;" d="M 75.867188 122.550781 L 75.867188 122.550781 M 77.570312 120.082031 L 76.625 119.648438 M 79.277344 117.613281 L 77.382812 116.746094 M 80.984375 115.148438 L 78.140625 113.84375 M 82.691406 112.679688 L 78.898438 110.941406 M 84.398438 110.210938 L 79.660156 108.035156 M 86.105469 107.746094 L 80.417969 105.132812 M 87.113281 106.285156 L 80.867188 103.421875 "/>
<path style=" stroke:none;fill-rule:nonzero;fill:rgb(100%,100%,100%);fill-opacity:1;" d="M 80.988281 99.355469 L 87.988281 99.355469 L 87.988281 110.355469 L 80.988281 110.355469 Z M 80.988281 99.355469 "/>
<g style="fill:rgb(0%,0%,100%);fill-opacity:1;">
  <use xlink:href="#glyph0-1" x="80.988281" y="108.018555"/>
</g>
<path style="fill:none;stroke-width:1.2;stroke-linecap:butt;stroke-linejoin:miter;stroke:rgb(0%,0%,0%);stroke-opacity:1;stroke-miterlimit:10;" d="M 103.375 103.039062 L 114.640625 118.921875 "/>
<path style="fill:none;stroke-width:1.2;stroke-linecap:butt;stroke-linejoin:miter;stroke:rgb(0%,0%,0%);stroke-opacity:1;stroke-miterlimit:10;" d="M 114.640625 118.921875 L 134.027344 117.109375 "/>
<path style="fill:none;stroke-width:1.2;stroke-linecap:butt;stroke-linejoin:miter;stroke:rgb(0%,0%,0%);stroke-opacity:1;stroke-miterlimit:10;" d="M 134.027344 117.109375 L 145.289062 132.992188 "/>
<path style="fill:none;stroke-width:1.2;stroke-linecap:butt;stroke-linejoin:miter;stroke:rgb(0%,0%,0%);stroke-opacity:1;stroke-miterlimit:10;" d="M 145.289062 132.992188 L 154.984375 132.085938 "/>
<path style="fill:none;stroke-width:1.2;stroke-linecap:butt;stroke-linejoin:miter;stroke:rgb(100%,0%,0%);stroke-opacity:1;stroke-miterlimit:10;" d="M 154.984375 132.085938 L 164.675781 131.179688 "/>
<path style="fill:none;stroke-width:1.2;stroke-linecap:butt;stroke-linejoin:miter;stroke:rgb(100%,0%,0%);stroke-opacity:1;stroke-miterlimit:10;" d="M 164.675781 131.179688 L 170.308594 139.121094 "/>
<path style="fill:none;stroke-width:1.2;stroke-linecap:butt;stroke-linejoin:miter;stroke:rgb(0%,0%,0%);stroke-opacity:1;stroke-miterlimit:10;" d="M 170.308594 139.121094 L 175.941406 147.0625 "/>
<path style=" stroke:none;fill-rule:nonzero;fill:rgb(100%,100%,100%);fill-opacity:1;" d="M 160.675781 125.679688 L 168.675781 125.679688 L 168.675781 136.679688 L 160.675781 136.679688 Z M 160.675781 125.679688 "/>
<g style="fill:rgb(100%,0%,0%);fill-opacity:1;">
  <use xlink:href="#glyph0-2" x="160.675781" y="134.342773"/>
</g>
<path style="fill:none;stroke-width:1.2;stroke-linecap:butt;stroke-linejoin:miter;stroke:rgb(0%,0%,0%);stroke-opacity:1;stroke-miterlimit:10;" d="M 173.859375 146.105469 L 169.796875 154.953125 "/>
<path style="fill:none;stroke-width:1.2;stroke-linecap:butt;stroke-linejoin:miter;stroke:rgb(100%,0%,0%);stroke-opacity:1;stroke-miterlimit:10;" d="M 169.796875 154.953125 L 165.734375 163.804688 "/>
<path style="fill:none;stroke-width:1.2;stroke-linecap:butt;stroke-linejoin:miter;stroke:rgb(0%,0%,0%);stroke-opacity:1;stroke-miterlimit:10;" d="M 178.019531 148.019531 L 173.960938 156.867188 "/>
<path style="fill:none;stroke-width:1.2;stroke-linecap:butt;stroke-linejoin:miter;stroke:rgb(100%,0%,0%);stroke-opacity:1;stroke-miterlimit:10;" d="M 173.960938 156.867188 L 169.898438 165.714844 "/>
<path style="fill:none;stroke-width:1.2;stroke-linecap:butt;stroke-linejoin:miter;stroke:rgb(0%,0%,0%);stroke-opacity:1;stroke-miterlimit:10;" d="M 175.941406 147.0625 L 195.328125 145.25 "/>
<path style=" stroke:none;fill-rule:nonzero;fill:rgb(100%,100%,100%);fill-opacity:1;" d="M 159.816406 159.257812 L 167.816406 159.257812 L 167.816406 170.257812 L 159.816406 170.257812 Z M 159.816406 159.257812 "/>
<g style="fill:rgb(100%,0%,0%);fill-opacity:1;">
  <use xlink:href="#glyph0-2" x="159.816406" y="167.920898"/>
</g>
<path style="fill:none;stroke-width:1.2;stroke-linecap:butt;stroke-linejoin:miter;stroke:rgb(0%,0%,0%);stroke-opacity:1;stroke-miterlimit:10;" d="M 195.328125 145.25 L 206.589844 161.132812 "/>
<path style="fill:none;stroke-width:1.2;stroke-linecap:butt;stroke-linejoin:miter;stroke:rgb(0%,0%,0%);stroke-opacity:1;stroke-miterlimit:10;" d="M 200.191406 144.1875 L 209.199219 156.894531 "/>
<path style="fill:none;stroke-width:1.2;stroke-linecap:butt;stroke-linejoin:miter;stroke:rgb(0%,0%,0%);stroke-opacity:1;stroke-miterlimit:10;" d="M 203.449219 127.554688 L 195.328125 145.25 "/>
<path style="fill:none;stroke-width:1.2;stroke-linecap:butt;stroke-linejoin:miter;stroke:rgb(0%,0%,0%);stroke-opacity:1;stroke-miterlimit:10;" d="M 206.589844 161.132812 L 225.976562 159.320312 "/>
<path style="fill:none;stroke-width:1.2;stroke-linecap:butt;stroke-linejoin:miter;stroke:rgb(0%,0%,0%);stroke-opacity:1;stroke-miterlimit:10;" d="M 225.976562 159.320312 L 234.101562 141.625 "/>
<path style="fill:none;stroke-width:1.2;stroke-linecap:butt;stroke-linejoin:miter;stroke:rgb(0%,0%,0%);stroke-opacity:1;stroke-miterlimit:10;" d="M 222.625 155.636719 L 229.125 141.480469 "/>
<path style="fill:none;stroke-width:1.2;stroke-linecap:butt;stroke-linejoin:miter;stroke:rgb(0%,0%,0%);stroke-opacity:1;stroke-miterlimit:10;" d="M 225.976562 159.320312 L 231.609375 167.261719 "/>
<path style="fill:none;stroke-width:1.2;stroke-linecap:butt;stroke-linejoin:miter;stroke:rgb(100%,0%,0%);stroke-opacity:1;stroke-miterlimit:10;" d="M 231.609375 167.261719 L 237.238281 175.203125 "/>
<path style="fill:none;stroke-width:1.2;stroke-linecap:butt;stroke-linejoin:miter;stroke:rgb(0%,0%,0%);stroke-opacity:1;stroke-miterlimit:10;" d="M 234.101562 141.625 L 222.835938 125.742188 "/>
<path style="fill:none;stroke-width:1.2;stroke-linecap:butt;stroke-linejoin:miter;stroke:rgb(0%,0%,0%);stroke-opacity:1;stroke-miterlimit:10;" d="M 234.101562 141.625 L 243.792969 140.714844 "/>
<path style="fill:none;stroke-width:1.2;stroke-linecap:butt;stroke-linejoin:miter;stroke:rgb(100%,0%,0%);stroke-opacity:1;stroke-miterlimit:10;" d="M 243.792969 140.714844 L 253.488281 139.808594 "/>
<path style="fill:none;stroke-width:1.2;stroke-linecap:butt;stroke-linejoin:miter;stroke:rgb(0%,0%,0%);stroke-opacity:1;stroke-miterlimit:10;" d="M 222.835938 125.742188 L 203.449219 127.554688 "/>
<path style="fill:none;stroke-width:1.2;stroke-linecap:butt;stroke-linejoin:miter;stroke:rgb(0%,0%,0%);stroke-opacity:1;stroke-miterlimit:10;" d="M 221.324219 130.484375 L 205.816406 131.933594 "/>
<path style="fill:none;stroke-width:1.2;stroke-linecap:butt;stroke-linejoin:miter;stroke:rgb(100%,0%,0%);stroke-opacity:1;stroke-miterlimit:10;" d="M 253.488281 139.808594 L 259.117188 147.75 "/>
<path style="fill:none;stroke-width:1.2;stroke-linecap:butt;stroke-linejoin:miter;stroke:rgb(0%,0%,0%);stroke-opacity:1;stroke-miterlimit:10;" d="M 259.117188 147.75 L 264.75 155.691406 "/>
<path style=" stroke:none;fill-rule:nonzero;fill:rgb(100%,100%,100%);fill-opacity:1;" d="M 249.488281 134.308594 L 257.488281 134.308594 L 257.488281 145.308594 L 249.488281 145.308594 Z M 249.488281 134.308594 "/>
<g style="fill:rgb(100%,0%,0%);fill-opacity:1;">
  <use xlink:href="#glyph0-2" x="249.488281" y="142.97168"/>
</g>
<path style="fill:none;stroke-width:1.2;stroke-linecap:butt;stroke-linejoin:miter;stroke:rgb(100%,0%,0%);stroke-opacity:1;stroke-miterlimit:10;" d="M 237.238281 175.203125 L 233.179688 184.050781 "/>
<path style="fill:none;stroke-width:1.2;stroke-linecap:butt;stroke-linejoin:miter;stroke:rgb(0%,0%,0%);stroke-opacity:1;stroke-miterlimit:10;" d="M 233.179688 184.050781 L 229.117188 192.898438 "/>
<path style=" stroke:none;fill-rule:nonzero;fill:rgb(100%,100%,100%);fill-opacity:1;" d="M 233.238281 169.703125 L 241.238281 169.703125 L 241.238281 180.703125 L 233.238281 180.703125 Z M 233.238281 169.703125 "/>
<g style="fill:rgb(100%,0%,0%);fill-opacity:1;">
  <use xlink:href="#glyph0-2" x="233.238281" y="178.366211"/>
</g>
<path style="fill:none;stroke-width:1.2;stroke-linecap:butt;stroke-linejoin:miter;stroke:rgb(0%,0%,0%);stroke-opacity:1;stroke-miterlimit:10;" d="M 75.867188 122.550781 L 56.480469 124.363281 "/>
<path style="fill:none;stroke-width:1.2;stroke-linecap:butt;stroke-linejoin:miter;stroke:rgb(0%,0%,0%);stroke-opacity:1;stroke-miterlimit:10;" d="M 75.867188 122.550781 L 87.128906 138.433594 "/>
<path style="fill:none;stroke-width:1.2;stroke-linecap:butt;stroke-linejoin:miter;stroke:rgb(0%,0%,0%);stroke-opacity:1;stroke-miterlimit:10;" d="M 87.128906 138.433594 L 79.007812 156.128906 "/>
<path style="fill:none;stroke-width:1.2;stroke-linecap:butt;stroke-linejoin:miter;stroke:rgb(0%,0%,0%);stroke-opacity:1;stroke-miterlimit:10;" d="M 79.007812 156.128906 L 59.621094 157.941406 "/>
<path style="fill:none;stroke-width:1.2;stroke-linecap:butt;stroke-linejoin:miter;stroke:rgb(0%,0%,0%);stroke-opacity:1;stroke-miterlimit:10;" d="M 77.492188 160.871094 L 61.984375 162.320312 "/>
<path style="fill:none;stroke-width:1.2;stroke-linecap:butt;stroke-linejoin:miter;stroke:rgb(0%,0%,0%);stroke-opacity:1;stroke-miterlimit:10;" d="M 90.269531 172.011719 L 79.007812 156.128906 "/>
<path style="fill:none;stroke-width:1.2;stroke-linecap:butt;stroke-linejoin:miter;stroke:rgb(0%,0%,0%);stroke-opacity:1;stroke-miterlimit:10;" d="M 59.621094 157.941406 L 51.496094 175.636719 "/>
<path style="fill:none;stroke-width:1.2;stroke-linecap:butt;stroke-linejoin:miter;stroke:rgb(0%,0%,0%);stroke-opacity:1;stroke-miterlimit:10;" d="M 51.496094 175.636719 L 62.761719 191.519531 "/>
<path style="fill:none;stroke-width:1.2;stroke-linecap:butt;stroke-linejoin:miter;stroke:rgb(0%,0%,0%);stroke-opacity:1;stroke-miterlimit:10;" d="M 56.359375 174.574219 L 65.371094 187.28125 "/>
<path style="fill:none;stroke-width:1.2;stroke-linecap:butt;stroke-linejoin:miter;stroke:rgb(0%,0%,0%);stroke-opacity:1;stroke-miterlimit:10;" d="M 62.761719 191.519531 L 82.148438 189.707031 "/>
<path style="fill:none;stroke-width:1.2;stroke-linecap:butt;stroke-linejoin:miter;stroke:rgb(0%,0%,0%);stroke-opacity:1;stroke-miterlimit:10;" d="M 62.761719 191.519531 L 58.699219 200.367188 "/>
<path style="fill:none;stroke-width:1.2;stroke-linecap:butt;stroke-linejoin:miter;stroke:rgb(100%,0%,0%);stroke-opacity:1;stroke-miterlimit:10;" d="M 58.699219 200.367188 L 54.636719 209.214844 "/>
<path style="fill:none;stroke-width:1.2;stroke-linecap:butt;stroke-linejoin:miter;stroke:rgb(0%,0%,0%);stroke-opacity:1;stroke-miterlimit:10;" d="M 82.148438 189.707031 L 90.269531 172.011719 "/>
<path style="fill:none;stroke-width:1.2;stroke-linecap:butt;stroke-linejoin:miter;stroke:rgb(0%,0%,0%);stroke-opacity:1;stroke-miterlimit:10;" d="M 78.796875 186.027344 L 85.292969 171.871094 "/>
<path style="fill:none;stroke-width:1.2;stroke-linecap:butt;stroke-linejoin:miter;stroke:rgb(100%,0%,0%);stroke-opacity:1;stroke-miterlimit:10;" d="M 54.636719 209.214844 L 44.941406 210.121094 "/>
<path style="fill:none;stroke-width:1.2;stroke-linecap:butt;stroke-linejoin:miter;stroke:rgb(0%,0%,0%);stroke-opacity:1;stroke-miterlimit:10;" d="M 44.941406 210.121094 L 35.25 211.027344 "/>
<path style=" stroke:none;fill-rule:nonzero;fill:rgb(100%,100%,100%);fill-opacity:1;" d="M 50.636719 203.714844 L 58.636719 203.714844 L 58.636719 214.714844 L 50.636719 214.714844 Z M 50.636719 203.714844 "/>
<g style="fill:rgb(100%,0%,0%);fill-opacity:1;">
  <use xlink:href="#glyph0-2" x="50.636719" y="212.37793"/>
</g>
</g>
</svg>

<svg xmlns="http://www.w3.org/2000/svg" xmlns:xlink="http://www.w3.org/1999/xlink" width="300pt" height="300pt" viewBox="0 0 300 300"><defs><symbol overflow="visible"><path d="M.453 1.594v-7.938h4.5v7.938zm.5-.5h3.5v-6.938h-3.5zm0 0"/></symbol><symbol overflow="visible" id="a"><path d="M.89-6.563H2.08l2.906 5.485v-5.484h.86V0H4.656L1.75-5.484V0H.89zm0 0"/></symbol><symbol overflow="visible" id="b"><path d="M3.547-5.953c-.65 0-1.164.242-1.547.72-.375.48-.563 1.13-.563 1.952 0 .835.188 1.49.563 1.967.383.48.898.72 1.547.72.644 0 1.156-.24 1.53-.72.376-.476.564-1.132.564-1.968 0-.822-.187-1.474-.562-1.954-.375-.477-.887-.72-1.53-.72zm0-.734c.914 0 1.648.312 2.203.937.55.617.828 1.438.828 2.47 0 1.042-.277 1.87-.828 2.483-.555.617-1.29.922-2.203.922-.93 0-1.668-.305-2.22-.922C.774-1.41.5-2.237.5-3.28c0-1.033.273-1.853.828-2.47.55-.625 1.29-.938 2.22-.938zm0 0"/></symbol></defs><g><path fill="#fff" d="M0 0h300v300H0z"/><path d="M53.34 90.785l19.387-1.812M72.727 88.973l5.628 7.94" stroke-width="1.2" stroke="#000" stroke-miterlimit="10" fill="none"/><path d="M78.355 96.914l5.633 7.94M83.988 104.855l9.696-.91" stroke-width="1.2" stroke="#00f" stroke-miterlimit="10" fill="none"/><path d="M93.684 103.945l9.69-.906" stroke-width="1.2" stroke="#000" stroke-miterlimit="10" fill="none"/><path d="M75.867 122.55m1.703-2.468l-.945-.434m2.652-2.035l-1.894-.867m3.6-1.598l-2.842-1.304m4.55-1.164l-3.792-1.74m5.5-.73l-4.738-2.175m6.445-.29l-5.687-2.612m6.695 1.152l-6.246-2.863" stroke="#000" stroke-miterlimit="10" fill="none"/><path d="M80.988 99.355h7v11h-7zm0 0" fill="#fff"/><use xlink:href="#a" x="80.988" y="108.019" fill="#00f"/><path d="M103.375 103.04l11.266 15.882M114.64 118.922l19.387-1.813M134.027 117.11l11.262 15.882M145.29 132.992l9.694-.906" stroke-width="1.2" stroke="#000" stroke-miterlimit="10" fill="none"/><path d="M154.984 132.086l9.692-.906M164.676 131.18l5.633 7.94" stroke-width="1.2" stroke="#f00" stroke-miterlimit="10" fill="none"/><path d="M170.31 139.12l5.63 7.942" stroke-width="1.2" stroke="#000" stroke-miterlimit="10" fill="none"/><path d="M160.676 125.68h8v11h-8zm0 0" fill="#fff"/><use xlink:href="#b" x="160.676" y="134.343" fill="#f00"/><path d="M173.86 146.105l-4.063 8.848" stroke-width="1.2" stroke="#000" stroke-miterlimit="10" fill="none"/><path d="M169.797 154.953l-4.063 8.852" stroke-width="1.2" stroke="#f00" stroke-miterlimit="10" fill="none"/><path d="M178.02 148.02l-4.06 8.847" stroke-width="1.2" stroke="#000" stroke-miterlimit="10" fill="none"/><path d="M173.96 156.867l-4.062 8.848" stroke-width="1.2" stroke="#f00" stroke-miterlimit="10" fill="none"/><path d="M175.94 147.063l19.388-1.813" stroke-width="1.2" stroke="#000" stroke-miterlimit="10" fill="none"/><path d="M159.816 159.258h8v11h-8zm0 0" fill="#fff"/><use xlink:href="#b" x="159.816" y="167.921" fill="#f00"/><path d="M195.328 145.25l11.262 15.883M200.19 144.188l9.01 12.707M203.45 127.555l-8.122 17.695M206.59 161.133l19.387-1.813M225.977 159.32l8.125-17.695M222.625 155.637l6.5-14.157M225.977 159.32l5.632 7.942" stroke-width="1.2" stroke="#000" stroke-miterlimit="10" fill="none"/><path d="M231.61 167.262l5.628 7.94" stroke-width="1.2" stroke="#f00" stroke-miterlimit="10" fill="none"/><path d="M234.102 141.625l-11.266-15.883M234.102 141.625l9.69-.91" stroke-width="1.2" stroke="#000" stroke-miterlimit="10" fill="none"/><path d="M243.793 140.715l9.695-.906" stroke-width="1.2" stroke="#f00" stroke-miterlimit="10" fill="none"/><path d="M222.836 125.742l-19.387 1.813M221.324 130.484l-15.508 1.45" stroke-width="1.2" stroke="#000" stroke-miterlimit="10" fill="none"/><path d="M253.488 139.81l5.63 7.94" stroke-width="1.2" stroke="#f00" stroke-miterlimit="10" fill="none"/><path d="M259.117 147.75l5.633 7.94" stroke-width="1.2" stroke="#000" stroke-miterlimit="10" fill="none"/><path d="M249.488 134.31h8v11h-8zm0 0" fill="#fff"/><use xlink:href="#b" x="249.488" y="142.972" fill="#f00"/><path d="M237.238 175.203l-4.058 8.848" stroke-width="1.2" stroke="#f00" stroke-miterlimit="10" fill="none"/><path d="M233.18 184.05l-4.063 8.848" stroke-width="1.2" stroke="#000" stroke-miterlimit="10" fill="none"/><path d="M233.238 169.703h8v11h-8zm0 0" fill="#fff"/><use xlink:href="#b" x="233.238" y="178.366" fill="#f00"/><path d="M75.867 122.55l-19.387 1.813M75.867 122.55l11.262 15.884M87.13 138.434l-8.122 17.695M79.008 156.13l-19.387 1.81M77.492 160.87l-15.508 1.45M90.27 172.012L79.008 156.13M59.62 157.94l-8.124 17.697M51.496 175.637l11.266 15.883M56.36 174.574l9.01 12.707M62.762 191.52l19.386-1.813M62.762 191.52l-4.063 8.847" stroke-width="1.2" stroke="#000" stroke-miterlimit="10" fill="none"/><path d="M58.7 200.367l-4.063 8.848" stroke-width="1.2" stroke="#f00" stroke-miterlimit="10" fill="none"/><path d="M82.148 189.707l8.122-17.695M78.797 186.027l6.496-14.156" stroke-width="1.2" stroke="#000" stroke-miterlimit="10" fill="none"/><path d="M54.637 209.215l-9.696.906" stroke-width="1.2" stroke="#f00" stroke-miterlimit="10" fill="none"/><path d="M44.94 210.12l-9.69.907" stroke-width="1.2" stroke="#000" stroke-miterlimit="10" fill="none"/><path d="M50.637 203.715h8v11h-8zm0 0" fill="#fff"/><use xlink:href="#b" x="50.637" y="212.378" fill="#f00"/></g></svg>
